X:1
T:Es ist das Heil
T:Sixtus Dietrich
T:Source : DDT 34---Leipzig---Breitkopf & Härtel---J.Wolf---1908. First print : Newe Deudsche Geistliche Gesenge---Wittemberg---G.Rhau---1544. Editor : André Vierendeels (24/07/17). 
T:Notes : Original clefs : G2, C2, C3, F3 Original note values have been halved Editorial accidentals above the staff
T:Es ist das Heil
T:©
T:©
T:©
C:Sixtus Dietrich
Z:©
%%score [ 1 [ 2 3 4 ] ]
L:1/8
Q:1/4=121
M:2/2
K:C
V:1 treble nm="Soprano" snm="S"
V:2 treble-8 nm="Tenor 1" snm="T 1"
V:3 treble-8 nm="Tenor 2" snm="T 2"
V:4 treble-8 nm="Tenor 3" snm="T 3"
V:1
 z4 z2 B2 | B2 B2 A4 | z2 d2 d2 d2 | c4 f4 | e4 z2 d2 | d2 d2 e2 d2- | dc B2 A2 e2- | %7
w: Es|ist das Heil|uns kom- men|her _|_ von|Gnad und lau- *|* * * ter Gü-|
w: Die|Werk die hel-|fen nim- mer|meht, _|_ sie|mö- gen nicht be-|* * * * hü-|
"^#" ed d4 c2 |1[M:2/4] d4 ::2 z2 B2 ||[M:2/2] B4 B4 | c4 A4 | B4 c4 | A4 z2 B2 | B4 B4 | c4 A4 | %16
w: |te.|Der|Glaub sieht|Je- sum|Chri- stum|an, der|hat g'nug|für uns|
w: |||||||||
 B4 e4 | d6 c2 | B6 A2 | G4 E2 C2 | D4 C2 c2 | B2 G4 F2 | G2 d2 e4 | d2 c4 B2 | c6 BA | B8 |] %26
w: all ge-|tan, _|_ _|* * er|ist ein Mitt-|ler wor- *|[den, er ist|ein Mitt- ler|wor- * ]|den.|
w: ||||||||||
V:2
 z4 z2 g2 | g2 g2 f4 | z2 a2 a2 a2 | a8 | z2 e2 f2 f2 | d2 g4 fe | d2 g2 e2 c2 | f3 g a4 |1 %8
w: Es|ist dad Heil|uns kom- men|her|aus Gnad und|lau- * ter _|Gü- * * *||
w: Die|Werk die hel-|fen nim- mer|mehr,|sie mö- gen|nicht be- * *|hü- * * *||
[M:2/4] f4 ::2 z2 d2 ||[M:2/2] d4 d4 | c4 d4 | B2 G2 g4 | f4 z2 d2 | d4 d4 | c4 d4 | B2 G2 g4 | %17
w: te.|Der|Glaub sieht|Je- sum|Chri- * stum|an, der|hat g'nug|für uns|all _ ge-|
w: |||||||||
 g4 z2 g2- | g2 fe d2 e2 | d4 cdef | g4 e2 f2 | d4 z2 d2 | e2 d3 c c2 | B2 c2 d4 | e8 | d8 |] %26
w: tan, er|_ _ _ ist ein|Mitt- * * * *|* ler wor-|den, er|ist _ _ ein|Mitt- ler wor-||den.|
w: |||||||||
V:3
 z4 z2 d2 | d4 d4 | d4 f4 | e4 d4 | c4 z2 d2 | B4 G4 | B4 c4 | d4 e4 |1[M:2/4] d4 ::2 z2 d2 || %10
w: Es|ist das|Heil uns|kom- men|her von|Gnad und|lau- ter|Gü- *|te.|Der|
w: Die|Werk die|hel- fen|nim- mehr,|mehr, sie|mö- gen|nicht be-|hü- *|||
[M:2/2] g6 f2 | e4 f4 | g4 e4 | d4 z2 d2 | g6 f2 | e4 d4 | d4 c4 | B4 e4 | d6 c2 | B4 A4 | G4 A4 | %21
w: Glaub sieht|Je- sum|Chri- stum|an, der|hat g'nug|für uns|all ge-|tan, er|ist ein|Mitt- ler|wor- *|
w: |||||||||||
 B4 A4 | G8- | G8- | G8- | G8 |] %26
w: |den.|_|||
w: |||||
V:4
 z4 z2 G2 | G2 G2 D4 | z2 D2 D4 | A4 D4 | z2 A2 F2 D2 | G4 z2 d2 | B2 G2 A4 | F2 D2 A4 |1 %8
w: Es|is das Heil|uns kom-|men her,|uns kom- men|her, von|Gnad und lau-|* ter Gü-|
w: Die|Werk die hel-|fen nim-|mer mehr,|sie mö- gen|nicht sie|mö- gen nicht|be- * hü-|
[M:2/4] D4 ::2 z2 G2 ||[M:2/2] G4 G4 | A4 D4 | G4 C4 | D4 z2 G2 | G4 G4 | A4 D4 | G4 C4 | %17
w: te.|Der|Glaub sieht|Je- sum|Chri- stum|an, der|hat g'nug|für uns|all ge-|
w: |||||||||
 G4 z2 C2 | G3 A B2 c2 | d2 G2 A2 c2- | c2 B2 c2 F2 | G4 D4 | z2 d2 B2 G2 | d2 G2 e4 | G8 | d8 |] %26
w: tan, er|ist _ _ ein|Mitt- ler wor- *||* den,|er ist ein|Mitt- ler wor-||den.|
w: |||||||||

